X: 1
T: The First House In Connaught
R: reel
M: 4/4
L: 1/8
K: Gmaj
DG(3.G.G.G AG(3.G.G.G | BGdB BGAF | DF(3.F.F.F AF(3.F.F.F | ABcA BGAF |
DG(3.G.G.G AG(3.G.G.G | BGdB BGAF | defg agfd |1 cAFA G3E :|2 cAFA G2Bd ||
~g3a gfdf | g2bg afde | f2de f2de | fgaf bgaf |
~g3a gfdf | g2bg agfe | defg agfd |1 cAFA G2Bd :|2 cAFA G3E ||


Tune 2601	Setting 23379

